/* XPM */
static char * muted_xpm[] = {
"26 24 2 1",
".     c None",
"+     c #ff3333",
"..........................",
"..........................",
"..........................",
"..........................",
"..........................",
"..........................",
"..........................",
".......+++......+++.......",
"........+++....+++........",
".........+++..+++.........",
"..........++++++..........",
"...........++++...........",
"...........++++...........",
"..........++++++..........",
".........+++..+++.........",
"........+++....+++........",
".......+++......+++.......",
"..........................",
"..........................",
"..........................",
"..........................",
"..........................",
"..........................",
".........................."};
